assets/svg/facebook_icon.svg

<svg fill="none" height="24" viewBox="0 0 12 24" width="12" xmlns="http://www.w3.org/2000/svg"><path d="m7.79563 24v-10.9297h3.55397l.5283-4.27936h-4.08227v-2.72576c0-1.23486.33162-2.08033 2.03984-2.08033h2.16453v-3.815264c-1.0532-.1170974-2.11177-.17363733-3.17095-.16936041-3.14139 0-5.2982 1.98964441-5.2982 5.64222441v3.14049h-3.53085v4.27936h3.53856v10.9377z" fill="#4092ff"/></svg>

<svg width="12" height="24" viewBox="0 0 12 24" fill="none" xmlns="http://www.w3.org/2000/svg">
<path d="M7.79563 24V13.0703H11.3496L11.8779 8.79094H7.79563V6.06518C7.79563 4.83032 8.12725 3.98485 9.83547 3.98485H12V0.169586C10.9468 0.0524886 9.88823 -0.00405133 8.82905 0.00022559C5.68766 0.00022559 3.53085 1.98987 3.53085 5.64245V8.78294H0V13.0623H3.53856V24H7.79563Z" fill="#4092FF"/>
</svg>
